X:62
T: Cupn u eaghra, S. 183
N: I0561
O: Irland
S: O'SULLIVAN, Donal: Song of the Irish]
N: Melismen
R: "Songs of the Harpers", Weinlied, erzhlend]
M: 3/4
L: 1/16
K: D
F3E | D4F4A4 | B2A2G2F2E2D2 | D4d4d2e2 | d8
d2B2 | A4B4d4 | e4d4e2f2 | f2e2d2c2B2A2 | B8
(3A2B2c2 | d4c4d2c2 | B6c2d2B2 | A2F2D2F2A2F2 | E8
F2A2 | B2c2d2B2A2F2 | B2A2G2F2E2D2 | E4D4D3E | D8
(3A2B2c2 | d2f2e2d2c2B2 | c2e2d2c2B2A2 | B2c2d2B2A2F2 | E8
F2A2 | B2c2d2B2A2F2 | B2A2G2F2E2D2 | E4D4D3E | D8

@@@ Tune index: 7337
